TileServer und Tiles/svg/6/9_3.svg

<?xml version='1.0' encoding='UTF-8' standalone='no'?>
<svg height="279pt" width="497pt" viewBox="0 0 497 279" xmlns:xlink="http://www.w3.org/1999/xlink" xmlns="http://www.w3.org/2000/svg">
 <defs overflow="visible" style="stroke:none;">
  <path d="M 0.265625 0 L 1.875 -7.59375 L 2.765625 -7.59375 L 2.125 -4.578125 C 2.007812 -4.046875 1.910156 -3.632812 1.828125 -3.34375 C 1.742188 -3.050781 1.6875 -2.859375 1.65625 -2.765625 L 1.671875 -2.765625 L 4.203125 -5.359375 L 5.25 -5.359375 L 2.953125 -3.0625 L 4.375 0 L 3.40625 0 L 2.28125 -2.515625 L 1.5625 -1.9375 L 1.15625 0 Z M 0.265625 0 " id="glyph0-5"/>
  <path d="M 1.546875 0.09375 C 1.222656 0.09375 0.9375 0.0625 0.6875 0 C 0.445312 -0.0625 0.234375 -0.140625 0.046875 -0.234375 L 0.046875 -1.046875 C 0.222656 -0.941406 0.441406 -0.84375 0.703125 -0.75 C 0.960938 -0.664062 1.234375 -0.625 1.515625 -0.625 C 1.910156 -0.625 2.210938 -0.703125 2.421875 -0.859375 C 2.628906 -1.015625 2.734375 -1.210938 2.734375 -1.453125 C 2.734375 -1.648438 2.664062 -1.8125 2.53125 -1.9375 C 2.40625 -2.070312 2.171875 -2.238281 1.828125 -2.4375 C 1.453125 -2.644531 1.164062 -2.863281 0.96875 -3.09375 C 0.78125 -3.320312 0.6875 -3.601562 0.6875 -3.9375 C 0.6875 -4.394531 0.847656 -4.757812 1.171875 -5.03125 C 1.503906 -5.3125 1.945312 -5.453125 2.5 -5.453125 C 2.820312 -5.453125 3.117188 -5.414062 3.390625 -5.34375 C 3.671875 -5.269531 3.914062 -5.1875 4.125 -5.09375 L 3.84375 -4.390625 C 3.664062 -4.472656 3.46875 -4.546875 3.25 -4.609375 C 3.039062 -4.679688 2.789062 -4.71875 2.5 -4.71875 C 2.207031 -4.71875 1.976562 -4.648438 1.8125 -4.515625 C 1.644531 -4.378906 1.5625 -4.203125 1.5625 -3.984375 C 1.5625 -3.816406 1.617188 -3.664062 1.734375 -3.53125 C 1.847656 -3.40625 2.082031 -3.242188 2.4375 -3.046875 C 2.664062 -2.910156 2.867188 -2.773438 3.046875 -2.640625 C 3.222656 -2.515625 3.363281 -2.363281 3.46875 -2.1875 C 3.570312 -2.019531 3.625 -1.804688 3.625 -1.546875 C 3.625 -1.003906 3.4375 -0.59375 3.0625 -0.3125 C 2.6875 -0.0390625 2.179688 0.09375 1.546875 0.09375 Z M 1.546875 0.09375 " id="glyph0-4"/>
  <path d="M 1.9375 0.09375 C 1.507812 0.09375 1.160156 -0.0546875 0.890625 -0.359375 C 0.617188 -0.671875 0.484375 -1.128906 0.484375 -1.734375 C 0.484375 -2.234375 0.546875 -2.707031 0.671875 -3.15625 C 0.804688 -3.601562 0.988281 -4 1.21875 -4.34375 C 1.445312 -4.6875 1.722656 -4.957031 2.046875 -5.15625 C 2.367188 -5.351562 2.722656 -5.453125 3.109375 -5.453125 C 3.460938 -5.453125 3.75 -5.359375 3.96875 -5.171875 C 4.1875 -4.992188 4.347656 -4.78125 4.453125 -4.53125 L 4.515625 -4.53125 L 4.828125 -5.359375 L 5.5 -5.359375 L 4.359375 0 L 3.65625 0 L 3.796875 -0.984375 L 3.75 -0.984375 C 3.519531 -0.691406 3.25 -0.4375 2.9375 -0.21875 C 2.632812 -0.0078125 2.300781 0.09375 1.9375 0.09375 Z M 2.21875 -0.625 C 2.46875 -0.625 2.707031 -0.710938 2.9375 -0.890625 C 3.175781 -1.078125 3.390625 -1.320312 3.578125 -1.625 C 3.773438 -1.9375 3.925781 -2.28125 4.03125 -2.65625 C 4.082031 -2.851562 4.113281 -3.03125 4.125 -3.1875 C 4.144531 -3.351562 4.15625 -3.507812 4.15625 -3.65625 C 4.15625 -3.96875 4.066406 -4.222656 3.890625 -4.421875 C 3.722656 -4.617188 3.492188 -4.71875 3.203125 -4.71875 C 2.941406 -4.71875 2.703125 -4.632812 2.484375 -4.46875 C 2.265625 -4.3125 2.070312 -4.085938 1.90625 -3.796875 C 1.738281 -3.515625 1.609375 -3.191406 1.515625 -2.828125 C 1.421875 -2.472656 1.375 -2.097656 1.375 -1.703125 C 1.375 -1.347656 1.445312 -1.078125 1.59375 -0.890625 C 1.738281 -0.710938 1.945312 -0.625 2.21875 -0.625 Z M 2.21875 -0.625 " id="glyph0-3"/>
  <path d="M 0.265625 0 L 1.890625 -7.59375 L 2.765625 -7.59375 L 1.15625 0 Z M 0.265625 0 " id="glyph0-2"/>
  <path d="M -0.5625 0 L 3.3125 -7.140625 L 4.25 -7.140625 L 5.125 0 L 4.25 0 L 3.984375 -2.21875 L 1.5625 -2.21875 L 0.40625 0 Z M 2 -3.015625 L 3.890625 -3.015625 L 3.734375 -4.515625 C 3.703125 -4.773438 3.675781 -5.054688 3.65625 -5.359375 C 3.632812 -5.660156 3.617188 -5.929688 3.609375 -6.171875 L 3.578125 -6.171875 C 3.472656 -5.921875 3.347656 -5.648438 3.203125 -5.359375 C 3.066406 -5.066406 2.921875 -4.773438 2.765625 -4.484375 Z M 2 -3.015625 " id="glyph0-1"/>
  <path d="M 0.9375 0 L 0.9375 -7.140625 L 5.046875 -7.140625 L 5.046875 0 Z M 1.453125 -0.515625 L 4.546875 -0.515625 L 4.546875 -6.625 L 1.453125 -6.625 Z M 1.453125 -0.515625 " id="glyph0-0"/>
 </defs>
 <image height="279" xlink:href="svg/6/9_3.jpg" width="497"/>
 <g>
  <path d="M 205.605469 109.527344 L 209.480469 102.386719 L 210.417969 102.386719 L 211.292969 109.527344 L 210.417969 109.527344 L 210.152344 107.308594 L 207.730469 107.308594 L 206.574219 109.527344 Z M 208.167969 106.511719 L 210.058594 106.511719 L 209.902344 105.011719 C 209.871094 104.753906 209.84375 104.472656 209.824219 104.167969 C 209.800781 103.867188 209.785156 103.597656 209.777344 103.355469 L 209.746094 103.355469 C 209.640625 103.605469 209.515625 103.878906 209.371094 104.167969 C 209.234375 104.460938 209.089844 104.753906 208.933594 105.042969 Z M 208.167969 106.511719 " transform=" rotate(  340 220.553 106.528) " style="fill:none;stroke-width:3;stroke-linecap:butt;stroke-linejoin:round;stroke:rgb(100%,100%,100%);stroke-opacity:0.6;stroke-miterlimit:10;"/>
  <path d="M 212.054688 109.527344 L 213.679688 101.933594 L 214.554688 101.933594 L 212.945312 109.527344 Z M 212.054688 109.527344 " transform=" rotate(  340 220.553 106.528) " style="fill:none;stroke-width:3;stroke-linecap:butt;stroke-linejoin:round;stroke:rgb(100%,100%,100%);stroke-opacity:0.6;stroke-miterlimit:10;"/>
  <path d="M 216.304688 109.621094 C 215.875 109.621094 215.527344 109.472656 215.257812 109.167969 C 214.984375 108.855469 214.851562 108.398438 214.851562 107.792969 C 214.851562 107.292969 214.914062 106.820312 215.039062 106.371094 C 215.171875 105.925781 215.355469 105.527344 215.585938 105.183594 C 215.8125 104.839844 216.089844 104.570312 216.414062 104.371094 C 216.734375 104.175781 217.089844 104.074219 217.476562 104.074219 C 217.828125 104.074219 218.117188 104.167969 218.335938 104.355469 C 218.554688 104.535156 218.714844 104.746094 218.820312 104.996094 L 218.882812 104.996094 L 219.195312 104.167969 L 219.867188 104.167969 L 218.726562 109.527344 L 218.023438 109.527344 L 218.164062 108.542969 L 218.117188 108.542969 C 217.886719 108.835938 217.617188 109.089844 217.304688 109.308594 C 217 109.519531 216.667969 109.621094 216.304688 109.621094 Z M 216.585938 108.902344 C 216.835938 108.902344 217.074219 108.816406 217.304688 108.636719 C 217.542969 108.449219 217.757812 108.207031 217.945312 107.902344 C 218.140625 107.589844 218.292969 107.246094 218.398438 106.871094 C 218.449219 106.675781 218.480469 106.496094 218.492188 106.339844 C 218.511719 106.175781 218.523438 106.019531 218.523438 105.871094 C 218.523438 105.558594 218.433594 105.304688 218.257812 105.105469 C 218.089844 104.910156 217.859375 104.808594 217.570312 104.808594 C 217.308594 104.808594 217.070312 104.894531 216.851562 105.058594 C 216.632812 105.214844 216.4375 105.441406 216.273438 105.730469 C 216.105469 106.011719 215.976562 106.335938 215.882812 106.699219 C 215.789062 107.054688 215.742188 107.429688 215.742188 107.824219 C 215.742188 108.179688 215.8125 108.449219 215.960938 108.636719 C 216.105469 108.816406 216.3125 108.902344 216.585938 108.902344 Z M 216.585938 108.902344 " transform=" rotate(  340 220.553 106.528) " style="fill:none;stroke-width:3;stroke-linecap:butt;stroke-linejoin:round;stroke:rgb(100%,100%,100%);stroke-opacity:0.6;stroke-miterlimit:10;"/>
  <path d="M 221.59375 109.621094 C 221.269531 109.621094 220.984375 109.589844 220.734375 109.527344 C 220.492188 109.464844 220.28125 109.386719 220.09375 109.292969 L 220.09375 108.480469 C 220.269531 108.585938 220.488281 108.683594 220.75 108.777344 C 221.007812 108.863281 221.28125 108.902344 221.5625 108.902344 C 221.957031 108.902344 222.257812 108.824219 222.46875 108.667969 C 222.675781 108.511719 222.78125 108.316406 222.78125 108.074219 C 222.78125 107.878906 222.710938 107.714844 222.578125 107.589844 C 222.453125 107.457031 222.21875 107.289062 221.875 107.089844 C 221.5 106.882812 221.210938 106.664062 221.015625 106.433594 C 220.828125 106.207031 220.734375 105.925781 220.734375 105.589844 C 220.734375 105.132812 220.894531 104.769531 221.21875 104.496094 C 221.550781 104.214844 221.992188 104.074219 222.546875 104.074219 C 222.867188 104.074219 223.164062 104.113281 223.4375 104.183594 C 223.71875 104.257812 223.960938 104.339844 224.171875 104.433594 L 223.890625 105.136719 C 223.710938 105.054688 223.515625 104.980469 223.296875 104.917969 C 223.085938 104.847656 222.835938 104.808594 222.546875 104.808594 C 222.253906 104.808594 222.023438 104.878906 221.859375 105.011719 C 221.691406 105.148438 221.609375 105.324219 221.609375 105.542969 C 221.609375 105.710938 221.664062 105.863281 221.78125 105.996094 C 221.894531 106.121094 222.128906 106.285156 222.484375 106.480469 C 222.710938 106.617188 222.914062 106.753906 223.09375 106.886719 C 223.269531 107.011719 223.410156 107.164062 223.515625 107.339844 C 223.617188 107.507812 223.671875 107.722656 223.671875 107.980469 C 223.671875 108.523438 223.484375 108.933594 223.109375 109.214844 C 222.734375 109.488281 222.226562 109.621094 221.59375 109.621094 Z M 221.59375 109.621094 " transform=" rotate(  340 220.553 106.528) " style="fill:none;stroke-width:3;stroke-linecap:butt;stroke-linejoin:round;stroke:rgb(100%,100%,100%);stroke-opacity:0.6;stroke-miterlimit:10;"/>
  <path d="M 224.632812 109.527344 L 226.242188 101.933594 L 227.132812 101.933594 L 226.492188 104.949219 C 226.375 105.480469 226.277344 105.894531 226.195312 106.183594 C 226.109375 106.476562 226.054688 106.667969 226.023438 106.761719 L 226.039062 106.761719 L 228.570312 104.167969 L 229.617188 104.167969 L 227.320312 106.464844 L 228.742188 109.527344 L 227.773438 109.527344 L 226.648438 107.011719 L 225.929688 107.589844 L 225.523438 109.527344 Z M 224.632812 109.527344 " transform=" rotate(  340 220.553 106.528) " style="fill:none;stroke-width:3;stroke-linecap:butt;stroke-linejoin:round;stroke:rgb(100%,100%,100%);stroke-opacity:0.6;stroke-miterlimit:10;"/>
  <path d="M 231.253906 109.621094 C 230.824219 109.621094 230.476562 109.472656 230.207031 109.167969 C 229.933594 108.855469 229.800781 108.398438 229.800781 107.792969 C 229.800781 107.292969 229.863281 106.820312 229.988281 106.371094 C 230.121094 105.925781 230.304688 105.527344 230.535156 105.183594 C 230.761719 104.839844 231.039062 104.570312 231.363281 104.371094 C 231.683594 104.175781 232.039062 104.074219 232.425781 104.074219 C 232.777344 104.074219 233.066406 104.167969 233.285156 104.355469 C 233.503906 104.535156 233.664062 104.746094 233.769531 104.996094 L 233.832031 104.996094 L 234.144531 104.167969 L 234.816406 104.167969 L 233.675781 109.527344 L 232.972656 109.527344 L 233.113281 108.542969 L 233.066406 108.542969 C 232.835938 108.835938 232.566406 109.089844 232.253906 109.308594 C 231.949219 109.519531 231.617188 109.621094 231.253906 109.621094 Z M 231.535156 108.902344 C 231.785156 108.902344 232.023438 108.816406 232.253906 108.636719 C 232.492188 108.449219 232.707031 108.207031 232.894531 107.902344 C 233.089844 107.589844 233.242188 107.246094 233.347656 106.871094 C 233.398438 106.675781 233.429688 106.496094 233.441406 106.339844 C 233.460938 106.175781 233.472656 106.019531 233.472656 105.871094 C 233.472656 105.558594 233.382812 105.304688 233.207031 105.105469 C 233.039062 104.910156 232.808594 104.808594 232.519531 104.808594 C 232.257812 104.808594 232.019531 104.894531 231.800781 105.058594 C 231.582031 105.214844 231.386719 105.441406 231.222656 105.730469 C 231.054688 106.011719 230.925781 106.335938 230.832031 106.699219 C 230.738281 107.054688 230.691406 107.429688 230.691406 107.824219 C 230.691406 108.179688 230.761719 108.449219 230.910156 108.636719 C 231.054688 108.816406 231.261719 108.902344 231.535156 108.902344 Z M 231.535156 108.902344 " transform=" rotate(  340 220.553 106.528) " style="fill:none;stroke-width:3;stroke-linecap:butt;stroke-linejoin:round;stroke:rgb(100%,100%,100%);stroke-opacity:0.6;stroke-miterlimit:10;"/>
  <g transform=" rotate(  340 220.553 106.528) " style="fill:rgb(49.803922%,34.117647%,49.411765%);fill-opacity:1;">
   <use xlink:href="#glyph0-1" x="206.167506" y="109.52773"/>
   <use xlink:href="#glyph0-2" x="211.787506" y="109.52773"/>
   <use xlink:href="#glyph0-3" x="214.367506" y="109.52773"/>
   <use xlink:href="#glyph0-4" x="220.047506" y="109.52773"/>
   <use xlink:href="#glyph0-5" x="224.367506" y="109.52773"/>
   <use xlink:href="#glyph0-3" x="229.317506" y="109.52773"/>
  </g>
 </g>
</svg>

<svg xmlns="http://www.w3.org/2000/svg" xmlns:xlink="http://www.w3.org/1999/xlink" viewBox="0 0 497 279"> <defs overflow="visible" style="stroke:none">  <path id="e" d="m.3 0 1.6-7.6h.9l-.8 3c.1.6 0 1-.2 1.3l-.1.5 2.5-2.6h1L3-3l1.4 3h-1L2.3-2.5l-.7.5-.4 2Zm0 0"/>  <path id="d" d="M1.5 0H.7L0-.2V-1l.7.3h.8c.5.1.7.1 1-.1l.1-.7c.1-.1.1-.3-.1-.4 0-.2-.3-.3-.7-.5L1-3.1c-.2-.2-.3-.5-.3-.8 0-.5.1-.9.5-1.1.3-.3.7-.5 1.3-.5.3 0 .6 0 .9.2l.6.2-.2.7-.5-.2-.8-.1c-.3 0-.5 0-.7.2-.2.1-.2.3-.2.5l.1.5.7.5c.3 0 .6.2.6.4.2 0 .4.2.5.4l.1.7c0 .5-.2 1-.5 1.2C2.7 0 2 0 1.5 0Zm0 0"/>  <path id="c" d="M2 0c-.6 0-.9 0-1.2-.3C.6-.7.5-1 .5-1.7c0-.5 0-1 .2-1.5l.5-1.1c.2-.4.5-.7.8-.9a2 2 0 0 1 1.1-.3c.4 0 .6.1.9.3l.5.7.3-.9h.7L4.4 0h-.7l.1-1c-.3.3-.5.6-.9.8-.3.2-.6.2-.9.2Zm.1-.5c.4-.1.6-.2.9-.5l.6-.6a4 4 0 0 0 .4-1 3 3 0 0 0 .1-.7 4 4 0 0 0 0-.4c.1-.3.1-.5-.1-.7-.3-.2-.5-.3-.8-.3-.3 0-.5 0-.7.2a2 2 0 0 0-.6.7l-.4 1-.1 1.1c0 .4 0 .6.2.8.1.2.3.3.6.3Zm.1-.1"/>  <path id="b" d="m.3 0 1.6-7.6h.9L1.2 0Zm0 0"/>  <path id="a" d="m-.6 0 4-7.1h.8L5 0h-.7L4-2.2H1.6L.4 0ZM2-3h1.9l-.2-1.5v-1.7h-.2a14 14 0 0 1-.3.8l-.4 1Zm0 0"/>  <path d="M1 0v-7.1h4V0Zm.4-.5h3.1v-6.1h-3Zm.1 0"/> </defs> <image xlink:href="svg/6/9_3.jpg" width="497" height="279"/> <path d="m205.6 109.5 3.9-7.1h1l.7 7.1h-.8l-.2-2.2h-2.5l-1.1 2.2Zm2.6-3h1.8l-.1-1.5v-.8l-.2-.8a14 14 0 0 1-.4.8l-.4.8Zm3.8 3 1.8-7.5h.8l-1.7 7.5Zm4.3.1c-.4 0-.8-.1-1-.4-.3-.3-.4-.8-.4-1.4l.1-1.4.6-1.2c.2-.4.4-.6.8-.8a2 2 0 0 1 1-.4c.5 0 .8 0 1.1.4 0 .1.1.3.2.6l.6-.8h.6l-1.2 5.3h-.7l.2-1-1 .8c-.2.2-.5.3-.9.3Zm.3-.6c.2-.1.4-.1.7-.4.2-.2.5-.4.6-.6a4 4 0 0 0 .5-1.1 3 3 0 0 0 0-.6 4 4 0 0 0 .2-.3c-.1-.4-.1-.7-.3-1-.3 0-.4-.2-.7-.2-.3 0-.6 0-.7.3a2 2 0 0 0-.6.6l-.4 1-.2 1.1c0 .4.1.6.3.8 0 .2.3.4.6.4Zm5 .6h-.9l-.6-.4v-.7l.7.3.8.1c.4 0 .7 0 .9-.2l.3-.7c0-.1 0-.3-.2-.4l-.7-.6c-.4-.1-.7-.3-.9-.6-.2-.2-.3-.4-.3-.8 0-.6.3-.8.5-1.1.4-.3.8-.4 1.3-.4h1c.1.3.5.3.6.4l-.2.6-.6-.1H222c-.3.1-.4.3-.4.5s0 .5.2.5l.7.5.5.4.5.4.2.7c0 .5-.2 1-.7 1.2-.3.3-.8.4-1.4.4Zm3-.1 1.6-7.5h1l-.8 3-.2 1.2-.2.6 2.6-2.6h1l-2.3 2.3 1.4 3h-1l-.9-2.5-1 .6-.3 2Zm6.7.1c-.5 0-.8-.1-1-.4-.5-.3-.6-.8-.6-1.4.1-.5.1-1 .3-1.4l.5-1.2c.3-.4.5-.6.9-.8a2 2 0 0 1 1-.4c.4 0 .7 0 .9.4.2.1.4.3.5.6l.3-.8h.7l-1.1 5.3h-.7v-1l-.7.8-1 .3Zm.2-.6c.3-.1.5-.1.8-.4l.6-.6a4 4 0 0 0 .4-1.1 3 3 0 0 0 .1-.6 4 4 0 0 0 0-.3c.1-.4.1-.7-.1-1-.3 0-.5-.2-.8-.2-.2 0-.5 0-.7.3a2 2 0 0 0-.6.6l-.4 1-.1 1.1c0 .4 0 .6.2.8l.6.4Zm0-.1" style="fill:none;stroke-width:3;stroke-linecap:butt;stroke-linejoin:round;stroke:#fff;stroke-opacity:.6;stroke-miterlimit:10" transform=" rotate(  340 220.553 106.528) "/> <g style="fill:#7f577e;fill-opacity:1" transform=" rotate(  340 220.553 106.528) ">  <use xlink:href="#a" x="206.2" y="109.5"/>  <use xlink:href="#b" x="211.8" y="109.5"/>  <use xlink:href="#c" x="214.4" y="109.5"/>  <use xlink:href="#d" x="220" y="109.5"/>  <use xlink:href="#e" x="224.4" y="109.5"/>  <use xlink:href="#c" x="229.3" y="109.5"/> </g></svg>
